X:265
T:Marleborrow,The. JaW.265
T:Malbrook,aka. JaW.265
T:We Won’t Go Home…aka. JaW.265
M:6/8
L:1/8
Q:3/8=120
S:James Winder Ms, Lancashire, 1835-41
R:.Quickstep
O:England
A:Wyresdale,Lancashire
N:The B strain is available in other collections with which to make a
N:comparison..CGP
Z:vmp.Chris Partington, Aug 2004
K:G
G/A/|B2B B>AB|c3BdB|A2A ABA|B2G G2A|!
B2B BAB|c3BdB|A2A AGA |G3:|!
|:B/c/|” As written”d3Bee|d3 Bc|B2G g3|ee2d2:|

